X:4272
L:1/8
M:6/8
K:A
 e2 A Bcd | ecA A2 B | =cBA d2 =c | B2 =G G2 B | e2 A Bcd | ecA A2 B | efe d2 e | c2 A A2 e |: 
 =g2 g (gfe) | d3 c2 d | e2 a a2 g | a2 e e2 f | =g2 g (gfe) | d3 (c2 d) | efe d2 e | c2 A A2 e :| 
 (=gfe) (agf) | (ba=g) (agf) | (=gfe) (agf) | (=gfe) (dcB) ||

